public/home/img/icon-android.svg

<svg height="370" viewBox="0 0 313 370" width="313" xmlns="http://www.w3.org/2000/svg"><path d="m23.6 119.9c-12.6 0-22.7 10.2-22.7 22.7v95.2c0 12.6 10.2 22.7 22.7 22.7 12.6 0 22.7-10.2 22.7-22.7v-95.2c0-12.5-10.2-22.7-22.7-22.7zm183.3-85.5 15.9-29c.8-1.5.3-3.4-1.2-4.3-1.5-.8-3.5-.3-4.3 1.3l-16 29.3c-13.5-6-28.6-9.4-44.6-9.4-15.9 0-31 3.3-44.4 9.3l-16-29.2c-.8-1.5-2.8-2.1-4.3-1.3s-2.1 2.8-1.3 4.3l15.9 29c-31.2 16.1-52.3 46.7-52.3 81.9h204.8c0-35.2-21-65.8-52.2-81.9zm-96.8 44.8c-4.7 0-8.6-3.8-8.6-8.6 0-4.7 3.8-8.6 8.6-8.6 4.7 0 8.6 3.9 8.6 8.6 0 4.8-3.8 8.6-8.6 8.6zm93.3 0c-4.7 0-8.6-3.8-8.6-8.6 0-4.7 3.8-8.6 8.6-8.6 4.7 0 8.6 3.9 8.6 8.6-.1 4.7-3.9 8.6-8.6 8.6zm-148.3 192.6c0 13.4 10.8 24.3 24.3 24.3h16.5v50.4c0 12.5 10.2 22.7 22.7 22.7 12.6 0 22.7-10.2 22.7-22.8v-50.4h30.7v50.4c0 12.5 10.2 22.7 22.7 22.7 12.6 0 22.7-10.2 22.7-22.7v-50.4h16.6c13.4 0 24.3-10.8 24.3-24.3v-147.6l-203.2.1zm257.5-129.2c0-12.6-10.2-22.7-22.7-22.7-12.6 0-22.7 10.2-22.7 22.7v95.2c0 12.6 10.2 22.7 22.7 22.7 12.6 0 22.7-10.2 22.7-22.7z" fill="#a9b2bb" fill-rule="evenodd"/></svg>

<?xml version="1.0" encoding="UTF-8" standalone="no"?>
<svg width="313px" height="370px" viewBox="0 0 313 370" version="1.1" xmlns="http://www.w3.org/2000/svg" xmlns:xlink="http://www.w3.org/1999/xlink" xmlns:sketch="http://www.bohemiancoding.com/sketch/ns">
    <!-- Generator: Sketch 3.2.2 (9983) - http://www.bohemiancoding.com/sketch -->
    <title>Shape</title>
    <desc>Created with Sketch.</desc>
    <defs></defs>
    <g id="Page-1" stroke="none" stroke-width="1" fill="none" fill-rule="evenodd" sketch:type="MSPage">
        <g id="Android_Robot_outlined" sketch:type="MSLayerGroup" fill="#A9B2BB">
            <path d="M23.6,119.9 C11,119.9 0.9,130.1 0.9,142.6 L0.9,237.8 C0.9,250.4 11.1,260.5 23.6,260.5 C36.2,260.5 46.3,250.3 46.3,237.8 L46.3,142.6 C46.3,130.1 36.1,119.9 23.6,119.9 L23.6,119.9 Z M206.9,34.4 L222.8,5.4 C223.6,3.9 223.1,2 221.6,1.1 C220.1,0.3 218.1,0.8 217.3,2.4 L201.3,31.7 C187.8,25.7 172.7,22.3 156.7,22.3 C140.8,22.3 125.7,25.6 112.3,31.6 L96.3,2.4 C95.5,0.9 93.5,0.3 92,1.1 C90.5,1.9 89.9,3.9 90.7,5.4 L106.6,34.4 C75.4,50.5 54.3,81.1 54.3,116.3 L259.1,116.3 C259.1,81.1 238.1,50.5 206.9,34.4 L206.9,34.4 Z M110.1,79.2 C105.4,79.2 101.5,75.4 101.5,70.6 C101.5,65.9 105.3,62 110.1,62 C114.8,62 118.7,65.9 118.7,70.6 C118.7,75.4 114.9,79.2 110.1,79.2 L110.1,79.2 Z M203.4,79.2 C198.7,79.2 194.8,75.4 194.8,70.6 C194.8,65.9 198.6,62 203.4,62 C208.1,62 212,65.9 212,70.6 C211.9,75.3 208.1,79.2 203.4,79.2 L203.4,79.2 Z M55.1,271.8 C55.1,285.2 65.9,296.1 79.4,296.1 L95.9,296.1 L95.9,346.5 C95.9,359 106.1,369.2 118.6,369.2 C131.2,369.2 141.3,359 141.3,346.4 L141.3,296 L172,296 L172,346.4 C172,358.9 182.2,369.1 194.7,369.1 C207.3,369.1 217.4,358.9 217.4,346.4 L217.4,296 L234,296 C247.4,296 258.3,285.2 258.3,271.7 L258.3,124.1 L55.1,124.2 L55.1,271.8 Z M312.6,142.6 C312.6,130 302.4,119.9 289.9,119.9 C277.3,119.9 267.2,130.1 267.2,142.6 L267.2,237.8 C267.2,250.4 277.4,260.5 289.9,260.5 C302.5,260.5 312.6,250.3 312.6,237.8 L312.6,142.6 L312.6,142.6 Z" id="Shape" sketch:type="MSShapeGroup"></path>
        </g>
    </g>
</svg>
